;FLAVOR:RepRap
;TIME:3457
;Filament used: 3.24725m
;Layer height: 0.2
;Generated with Cura_SteamEngine master
M190 S60
M104 S205
M109 S205
G21 ;metric values
G90 ;absolute positioning
M82 ;set extruder to absolute mode
M107 ;start with the fan off
G28 X0 Y0 ;move X/Y to min endstops
G28 Z0 ;move Z to min endstops
G1 Z15.0 F9000 ;move the platform down 15mm
G92 E0 ;zero the extruded length
G1 F200 E3 ;extrude 3mm of feed stock
G92 E0 ;zero the extruded length again
G1 F9000
;Put printing message on LCD screen
M117 Printing...
;LAYER_COUNT:199
;LAYER:0
M107
G1 F1500 E-6.5
G0 F3600 X110.935 Y97.679 Z0.3
;TYPE:SKIRT
G1 F1500 E0
G1 F1800 X111.478 Y97.106 E0.03938
G1 X112.077 Y96.591 E0.0788
G1 X112.725 Y96.14 E0.11818
G1 X113.416 Y95.756 E0.15762
G1 X114.141 Y95.444 E0.197
G1 X114.894 Y95.207 E0.23638
G1 X115.668 Y95.048 E0.27581
G1 X116.453 Y94.967 E0.31518
G1 X116.855 Y94.957 E0.33524
G1 X124.855 Y94.957 E0.73436
G1 X125.644 Y94.997 E0.77378
G1 X126.424 Y95.116 E0.81314
G1 X127.189 Y95.314 E0.85256
G1 X127.929 Y95.588 E0.89193
G1 X128.638 Y95.936 E0.93134
G1 X129.309 Y96.354 E0.97078
G1 X129.933 Y96.837 E1.01014
G1 X130.506 Y97.38 E1.04953
G1 X131.021 Y97.979 E1.08894
G1 X131.472 Y98.627 E1.12833
G1 X131.836 Y99.281 E1.16567
G1 X131.875 Y99.29 E1.16767
G1 X132.625 Y99.538 E1.20708
G1 X132.999 Y99.694 E1.22729
G1 X134.158 Y100.214 E1.29067
G1 X134.861 Y100.574 E1.33007
G1 X135.524 Y101.002 E1.36944
G1 X135.853 Y101.253 E1.39009
G1 X136.849 Y102.054 E1.45385
G1 X137.439 Y102.579 E1.49326
G1 X137.972 Y103.161 E1.53263
G1 X138.233 Y103.495 E1.55378
G1 X138.996 Y104.527 E1.61781
G1 X139.433 Y105.185 E1.65721
G1 X139.801 Y105.884 E1.69663
G1 X139.963 Y106.259 E1.71701
G1 X140.435 Y107.435 E1.78023
G1 X140.691 Y108.181 E1.81957
G1 X140.871 Y108.95 E1.85898
G1 X140.933 Y109.351 E1.87922
G1 X141.093 Y110.603 E1.94219
G1 X141.153 Y111.391 E1.98162
G1 X141.134 Y112.18 E2.02099
G1 X141.093 Y112.581 E2.0411
G1 X140.932 Y113.84 E2.10443
G1 X140.792 Y114.618 E2.14386
G1 X140.575 Y115.377 E2.18325
G1 X140.433 Y115.758 E2.20353
G1 X139.955 Y116.948 E2.26751
G1 X139.624 Y117.665 E2.30691
G1 X139.222 Y118.345 E2.34632
G1 X138.981 Y118.688 E2.36724
G1 X138.225 Y119.707 E2.43054
G1 X137.723 Y120.317 E2.46995
G1 X137.162 Y120.873 E2.50936
G1 X136.849 Y121.138 E2.52982
G1 X135.853 Y121.939 E2.59358
G1 X135.214 Y122.402 E2.63295
G1 X134.53 Y122.798 E2.67238
G1 X134.162 Y122.976 E2.69278
G1 X133.007 Y123.495 E2.75595
G1 X132.271 Y123.782 E2.79536
G1 X131.83 Y123.904 E2.81819
G1 X131.676 Y124.218 E2.83564
G1 X131.258 Y124.889 E2.87508
G1 X130.775 Y125.513 E2.91445
G1 X130.232 Y126.086 E2.95383
G1 X129.633 Y126.601 E2.99324
G1 X128.985 Y127.052 E3.03263
G1 X128.294 Y127.436 E3.07207
G1 X127.569 Y127.748 E3.11145
G1 X126.816 Y127.985 E3.15083
G1 X126.042 Y128.144 E3.19026
G1 X125.257 Y128.225 E3.22963
G1 X124.855 Y128.235 E3.24969
G1 X116.855 Y128.235 E3.64881
G1 X116.066 Y128.195 E3.68822
G1 X115.286 Y128.076 E3.72759
G1 X114.521 Y127.878 E3.76701
G1 X113.781 Y127.604 E3.80638
G1 X113.072 Y127.256 E3.84578
G1 X112.401 Y126.838 E3.88523
G1 X111.777 Y126.355 E3.92459
G1 X111.204 Y125.812 E3.96398
G1 X110.689 Y125.213 E4.00339
G1 X110.238 Y124.565 E4.04278
G1 X109.854 Y123.874 E4.08222
G1 X109.542 Y123.149 E4.12159
G1 X109.305 Y122.396 E4.16098
G1 X109.146 Y121.622 E4.2004
G1 X109.065 Y120.837 E4.23977
G1 X109.055 Y120.435 E4.25983
G1 X109.055 Y102.757 E5.14179
G1 X109.095 Y101.968 E5.18121
G1 X109.214 Y101.188 E5.22057
G1 X109.412 Y100.423 E5.25999
G1 X109.686 Y99.683 E5.29936
G1 X110.034 Y98.974 E5.33877
G1 X110.452 Y98.303 E5.37821
G1 X110.935 Y97.679 E5.41757
G0 F3600 X111.33 Y97.834
G1 F1800 X111.871 Y97.287 E5.45596
G1 X112.466 Y96.799 E5.49435
G1 X113.108 Y96.376 E5.53271
G1 X113.791 Y96.021 E5.57111
G1 X114.506 Y95.74 E5.60944
G1 X115.248 Y95.534 E5.64785
G1 X116.006 Y95.406 E5.68621
G1 X116.855 Y95.357 E5.72863
G1 X124.855 Y95.357 E6.12776
G1 X125.623 Y95.397 E6.16612
G1 X126.383 Y95.516 E6.2045
G1 X127.126 Y95.714 E6.24286
G1 X127.845 Y95.988 E6.28125
G1 X128.531 Y96.335 E6.31961
G1 X129.178 Y96.751 E6.35798
G1 X129.778 Y97.232 E6.39635
G1 X130.325 Y97.773 E6.43473
G1 X130.813 Y98.368 E6.47312
G1 X131.236 Y99.01 E6.51148
G1 X131.558 Y99.63 E6.54633
G1 X131.788 Y99.681 E6.55809
G1 X132.835 Y100.059 E6.61362
G1 X133.994 Y100.579 E6.677
G1 X134.679 Y100.93 E6.7154
G1 X135.603 Y101.564 E6.7713
G1 X136.599 Y102.365 E6.83507
G1 X137.172 Y102.878 E6.87344
G1 X137.911 Y103.733 E6.92982
G1 X138.674 Y104.765 E6.99385
G1 X139.099 Y105.406 E7.03222
G1 X139.592 Y106.408 E7.08794
G1 X140.064 Y107.584 E7.15116
G1 X140.313 Y108.311 E7.18949
G1 X140.536 Y109.402 E7.24505
G1 X140.696 Y110.654 E7.30802
G1 X140.754 Y111.421 E7.3464
G1 X140.696 Y112.531 E7.40185
G1 X140.535 Y113.79 E7.46517
G1 X140.398 Y114.547 E7.50355
G1 X140.062 Y115.609 E7.55912
G1 X139.584 Y116.799 E7.6231
G1 X139.26 Y117.497 E7.6615
G1 X138.66 Y118.45 E7.71768
G1 X137.904 Y119.469 E7.78098
G1 X137.414 Y120.062 E7.81936
G1 X136.599 Y120.827 E7.87513
G1 X135.603 Y121.628 E7.93889
G1 X134.979 Y122.078 E7.97727
G1 X133.998 Y122.611 E8.03297
G1 X132.843 Y123.13 E8.09615
G1 X132.126 Y123.408 E8.13451
G1 X131.562 Y123.548 E8.16351
G1 X131.277 Y124.111 E8.19499
G1 X130.861 Y124.758 E8.23336
G1 X130.38 Y125.358 E8.27173
G1 X129.839 Y125.905 E8.31011
G1 X129.244 Y126.393 E8.3485
G1 X128.602 Y126.816 E8.38686
G1 X127.919 Y127.171 E8.42526
G1 X127.204 Y127.452 E8.46359
G1 X126.462 Y127.658 E8.50201
G1 X125.704 Y127.786 E8.54036
G1 X124.855 Y127.835 E8.58279
G1 X116.855 Y127.835 E8.98191
G1 X116.087 Y127.795 E9.02028
G1 X115.327 Y127.676 E9.05866
G1 X114.584 Y127.478 E9.09702
G1 X113.865 Y127.204 E9.13541
G1 X113.179 Y126.857 E9.17376
G1 X112.532 Y126.441 E9.21214
G1 X111.932 Y125.96 E9.2505
G1 X111.385 Y125.419 E9.28888
G1 X110.897 Y124.824 E9.32728
G1 X110.474 Y124.182 E9.36563
G1 X110.119 Y123.499 E9.40404
G1 X109.838 Y122.784 E9.44236
G1 X109.632 Y122.042 E9.48078
G1 X109.504 Y121.284 E9.51913
G1 X109.455 Y120.435 E9.56156
G1 X109.455 Y102.757 E10.44352
G1 X109.495 Y101.989 E10.48189
G1 X109.614 Y101.229 E10.52027
G1 X109.812 Y100.486 E10.55863
G1 X110.086 Y99.767 E10.59702
G1 X110.433 Y99.081 E10.63537
G1 X110.849 Y98.434 E10.67375
G1 X111.33 Y97.834 E10.71211
G0 F3600 X111.726 Y97.994
G1 F1800 X112.263 Y97.473 E10.74944
G1 X112.853 Y97.014 E10.78673
G1 X113.489 Y96.619 E10.82408
G1 X114.163 Y96.295 E10.86139
G1 X114.868 Y96.045 E10.89871
G1 X115.596 Y95.871 E10.93606
G1 X116.338 Y95.776 E10.97338
G1 X116.855 Y95.757 E10.99919
G1 X124.855 Y95.757 E11.39831
G1 X125.602 Y95.797 E11.43563
G1 X126.34 Y95.916 E11.47292
G1 X127.062 Y96.114 E11.51027
G1 X127.758 Y96.387 E11.54757
G1 X128.421 Y96.734 E11.58491
G1 X129.044 Y97.149 E11.62225
G1 X129.618 Y97.628 E11.65955
G1 X130.139 Y98.165 E11.69688
G1 X130.598 Y98.755 E11.73417
G1 X130.993 Y99.391 E11.77153
G1 X131.275 Y99.977 E11.80397
G1 X131.701 Y100.072 E11.82575
G1 X132.671 Y100.424 E11.87723
G1 X133.83 Y100.944 E11.9406
G1 X134.496 Y101.287 E11.97798
G1 X135.352 Y101.876 E12.02982
G1 X136.348 Y102.677 E12.09358
G1 X136.905 Y103.176 E12.13089
G1 X137.59 Y103.97 E12.18321
G1 X138.353 Y105.002 E12.24724
G1 X138.765 Y105.627 E12.28459
G1 X139.22 Y106.557 E12.33624
G1 X139.692 Y107.733 E12.39946
G1 X139.933 Y108.441 E12.43677
G1 X140.14 Y109.453 E12.48831
G1 X140.3 Y110.705 E12.55128
G1 X140.355 Y111.451 E12.5886
G1 X140.299 Y112.48 E12.64001
G1 X140.138 Y113.739 E12.70333
G1 X140.004 Y114.475 E12.74066
G1 X139.691 Y115.46 E12.79222
G1 X139.213 Y116.65 E12.8562
G1 X138.897 Y117.328 E12.89352
G1 X138.339 Y118.212 E12.94567
G1 X137.583 Y119.231 E13.00897
G1 X137.106 Y119.807 E13.04629
G1 X136.348 Y120.515 E13.09803
G1 X135.352 Y121.316 E13.1618
G1 X134.745 Y121.753 E13.19911
G1 X133.834 Y122.246 E13.25079
G1 X132.679 Y122.765 E13.31397
G1 X131.981 Y123.035 E13.3513
G1 X131.276 Y123.209 E13.38753
G1 X131.225 Y123.338 E13.39445
G1 X130.878 Y124.001 E13.43179
G1 X130.463 Y124.624 E13.46913
G1 X129.984 Y125.198 E13.50643
G1 X129.447 Y125.719 E13.54376
G1 X128.857 Y126.178 E13.58105
G1 X128.221 Y126.573 E13.6184
G1 X127.547 Y126.897 E13.65571
G1 X126.842 Y127.147 E13.69303
G1 X126.114 Y127.321 E13.73037
G1 X125.372 Y127.416 E13.7677
G1 X124.855 Y127.435 E13.79351
G1 X116.855 Y127.435 E14.19263
G1 X116.108 Y127.395 E14.22995
G1 X115.37 Y127.276 E14.26724
G1 X114.648 Y127.078 E14.30459
G1 X113.952 Y126.805 E14.34189
G1 X113.289 Y126.458 E14.37923
G1 X112.666 Y126.043 E14.41657
G1 X112.092 Y125.564 E14.45387
G1 X111.571 Y125.027 E14.4912
G1 X111.112 Y124.437 E14.52849
G1 X110.717 Y123.801 E14.56585
G1 X110.393 Y123.127 E14.60315
G1 X110.143 Y122.422 E14.64047
G1 X109.969 Y121.694 E14.67782
G1 X109.874 Y120.952 E14.71514
G1 X109.855 Y120.435 E14.74095
G1 X109.855 Y102.757 E15.62291
G1 X109.895 Y102.01 E15.66023
G1 X110.014 Y101.272 E15.69752
G1 X110.212 Y100.55 E15.73487
G1 X110.485 Y99.854 E15.77217
G1 X110.832 Y99.191 E15.80951
G1 X111.247 Y98.568 E15.84685
G1 X111.726 Y97.994 E15.88415
G0 F3600 X112.12 Y98.159
G1 F1800 X112.654 Y97.666 E15.92041
G1 X113.239 Y97.236 E15.95663
G1 X113.868 Y96.872 E15.99289
G1 X114.533 Y96.579 E16.02914
G1 X115.226 Y96.361 E16.06539
G1 X115.938 Y96.221 E16.10159
G1 X116.855 Y96.157 E16.14745
G1 X124.855 Y96.157 E16.54657
G1 X125.58 Y96.197 E16.5828
G1 X126.297 Y96.316 E16.61906
G1 X126.996 Y96.514 E16.6553
G1 X127.669 Y96.787 E16.69154
G1 X128.308 Y97.132 E16.72777
G1 X128.905 Y97.546 E16.76401
G1 X129.453 Y98.022 E16.80022
G1 X129.946 Y98.556 E16.83648
G1 X130.376 Y99.141 E16.87271
G1 X130.74 Y99.77 E16.90896
G1 X130.983 Y100.321 E16.93901
G1 X131.613 Y100.463 E16.97123
G1 X132.508 Y100.789 E17.01875
G1 X133.667 Y101.309 E17.08212
G1 X134.312 Y101.643 E17.11836
G1 X135.101 Y102.188 E17.1662
G1 X136.097 Y102.989 E17.22997
G1 X136.637 Y103.475 E17.26621
G1 X137.268 Y104.208 E17.31447
G1 X138.031 Y105.24 E17.3785
G1 X138.43 Y105.847 E17.41474
G1 X138.849 Y106.706 E17.46242
G1 X139.321 Y107.882 E17.52564
G1 X139.554 Y108.57 E17.56188
G1 X139.743 Y109.503 E17.60937
G1 X139.903 Y110.755 E17.67234
G1 X139.955 Y111.48 E17.70861
G1 X139.903 Y112.429 E17.75602
G1 X139.742 Y113.688 E17.81935
G1 X139.61 Y114.403 E17.85562
G1 X139.319 Y115.311 E17.90319
G1 X138.841 Y116.501 E17.96717
G1 X138.534 Y117.159 E18.00339
G1 X138.018 Y117.973 E18.05148
G1 X137.262 Y118.992 E18.11478
G1 X136.797 Y119.551 E18.15106
G1 X136.097 Y120.203 E18.19878
G1 X135.101 Y121.004 E18.26255
G1 X134.511 Y121.428 E18.29879
G1 X133.67 Y121.881 E18.34645
G1 X132.515 Y122.4 E18.40963
G1 X131.837 Y122.661 E18.44587
G1 X130.979 Y122.871 E18.48994
G1 X130.825 Y123.249 E18.5103
G1 X130.48 Y123.888 E18.54653
G1 X130.066 Y124.485 E18.58278
G1 X129.59 Y125.033 E18.61899
G1 X129.056 Y125.526 E18.65525
G1 X128.471 Y125.956 E18.69147
G1 X127.842 Y126.32 E18.72773
G1 X127.177 Y126.613 E18.76398
G1 X126.484 Y126.831 E18.80023
G1 X125.772 Y126.971 E18.83643
G1 X124.855 Y127.035 E18.88229
G1 X116.855 Y127.035 E19.28141
G1 X116.13 Y126.995 E19.31764
G1 X115.413 Y126.876 E19.3539
G1 X114.714 Y126.678 E19.39014
G1 X114.041 Y126.405 E19.42638
G1 X113.402 Y126.06 E19.46261
G1 X112.805 Y125.646 E19.49885
G1 X112.257 Y125.17 E19.53507
G1 X111.764 Y124.636 E19.57133
G1 X111.334 Y124.051 E19.60755
G1 X110.97 Y123.422 E19.6438
G1 X110.677 Y122.757 E19.68006
G1 X110.459 Y122.064 E19.7163
G1 X110.319 Y121.352 E19.7525
G1 X110.255 Y120.435 E19.79837
G1 X110.255 Y102.757 E20.68032
G1 X110.295 Y102.032 E20.71655
G1 X110.414 Y101.315 E20.75281
G1 X110.612 Y100.616 E20.78906
G1 X110.885 Y99.943 E20.82529
G1 X111.23 Y99.304 E20.86152
G1 X111.644 Y98.707 E20.89776
G1 X112.12 Y98.159 E20.93398
G0 F3600 X112.514 Y98.33
G1 F1800 X113.044 Y97.866 E20.96912
G1 X113.623 Y97.466 E21.00423
G1 X114.244 Y97.134 E21.03936
G1 X114.898 Y96.874 E21.07447
G1 X115.578 Y96.69 E21.10962
G1 X116.274 Y96.584 E21.14474
G1 X116.855 Y96.557 E21.17376
G1 X124.855 Y96.557 E21.57288
G1 X125.558 Y96.597 E21.60801
G1 X126.252 Y96.716 E21.64314
G1 X126.927 Y96.914 E21.67824
G1 X127.576 Y97.186 E21.71334
G1 X128.19 Y97.531 E21.74848
G1 X128.761 Y97.942 E21.78358
G1 X129.282 Y98.416 E21.81872
G1 X129.746 Y98.946 E21.85386
G1 X130.146 Y99.525 E21.88897
G1 X130.478 Y100.146 E21.9241
G1 X130.687 Y100.671 E21.9523
G1 X130.838 Y100.697 E21.95994
G1 X131.524 Y100.854 E21.99505
G1 X132.344 Y101.154 E22.03861
G1 X133.503 Y101.674 E22.10199
G1 X134.128 Y101.998 E22.13711
G1 X134.851 Y102.5 E22.18102
G1 X135.847 Y103.301 E22.24479
G1 X136.369 Y103.772 E22.27987
G1 X136.946 Y104.446 E22.32413
G1 X137.709 Y105.478 E22.38816
G1 X138.095 Y106.067 E22.42329
G1 X138.478 Y106.855 E22.46701
G1 X138.95 Y108.031 E22.53023
G1 X139.175 Y108.698 E22.56534
G1 X139.346 Y109.554 E22.60889
G1 X139.506 Y110.806 E22.67186
G1 X139.555 Y111.508 E22.70697
G1 X139.506 Y112.378 E22.75045
G1 X139.345 Y113.637 E22.81377
G1 X139.216 Y114.33 E22.84894
G1 X138.948 Y115.162 E22.89255
G1 X138.47 Y116.352 E22.95653
G1 X138.171 Y116.989 E22.99163
G1 X137.696 Y117.735 E23.03576
G1 X136.94 Y118.754 E23.09906
G1 X136.489 Y119.295 E23.1342
G1 X135.847 Y119.891 E23.1779
G1 X134.851 Y120.692 E23.24167
G1 X134.278 Y121.102 E23.27682
G1 X133.506 Y121.516 E23.32052
G1 X132.351 Y122.035 E23.3837
G1 X131.694 Y122.287 E23.4188
G1 X130.84 Y122.494 E23.46264
G1 X130.693 Y122.519 E23.47008
G1 X130.426 Y123.156 E23.50454
G1 X130.081 Y123.77 E23.53968
G1 X129.67 Y124.341 E23.57478
G1 X129.196 Y124.862 E23.60992
G1 X128.666 Y125.326 E23.64506
G1 X128.087 Y125.726 E23.68017
G1 X127.466 Y126.058 E23.7153
G1 X126.812 Y126.318 E23.75041
G1 X126.132 Y126.502 E23.78556
G1 X125.436 Y126.608 E23.82068
G1 X124.855 Y126.635 E23.8497
G1 X116.855 Y126.635 E24.24882
G1 X116.152 Y126.595 E24.28395
G1 X115.458 Y126.476 E24.31908
G1 X114.783 Y126.278 E24.35417
G1 X114.134 Y126.006 E24.38928
G1 X113.52 Y125.661 E24.42442
G1 X112.949 Y125.25 E24.45952
G1 X112.428 Y124.776 E24.49466
G1 X111.964 Y124.246 E24.5298
G1 X111.564 Y123.667 E24.56491
G1 X111.232 Y123.046 E24.60004
G1 X110.972 Y122.392 E24.63516
G1 X110.788 Y121.712 E24.6703
G1 X110.682 Y121.016 E24.70542
G1 X110.655 Y120.435 E24.73444
G1 X110.655 Y102.757 E25.6164
G1 X110.695 Y102.054 E25.65153
G1 X110.814 Y101.36 E25.68666
G1 X111.012 Y100.685 E25.72175
G1 X111.284 Y100.036 E25.75686
G1 X111.629 Y99.422 E25.792
G1 X112.04 Y98.851 E25.8271
G1 X112.514 Y98.33 E25.86224
G0 F3600 X112.908 Y98.508
G1 F1800 X113.433 Y98.074 E25.89622
G1 X114.005 Y97.705 E25.93018
G1 X114.617 Y97.406 E25.96416
G1 X115.259 Y97.181 E25.9981
G1 X115.924 Y97.032 E26.0321
G1 X116.855 Y96.957 E26.0787
G1 X124.855 Y96.957 E26.47782
G1 X125.535 Y96.997 E26.51181
G1 X126.205 Y97.116 E26.54576
G1 X126.857 Y97.313 E26.57974
G1 X127.481 Y97.585 E26.6137
G1 X128.069 Y97.929 E26.64769
G1 X128.613 Y98.339 E26.68167
G1 X129.104 Y98.81 E26.71561
G1 X129.538 Y99.335 E26.7496
G1 X129.907 Y99.907 E26.78356
G1 X130.206 Y100.519 E26.81754
G1 X130.384 Y101.027 E26.8444
G1 X130.771 Y101.092 E26.86397
G1 X131.435 Y101.244 E26.89796
G1 X132.18 Y101.519 E26.93758
G1 X133.339 Y102.039 E27.00095
G1 X133.943 Y102.354 E27.03494
G1 X134.6 Y102.811 E27.07487
G1 X135.596 Y103.612 E27.13863
G1 X136.1 Y104.069 E27.17257
G1 X136.625 Y104.684 E27.21292
G1 X137.388 Y105.716 E27.27695
G1 X137.76 Y106.286 E27.3109
G1 X138.107 Y107.004 E27.35069
G1 X138.579 Y108.18 E27.41391
G1 X138.795 Y108.825 E27.44785
G1 X138.949 Y109.605 E27.48751
G1 X139.109 Y110.857 E27.55048
G1 X139.156 Y111.536 E27.58444
G1 X139.109 Y112.328 E27.62402
G1 X138.948 Y113.587 E27.68734
G1 X138.822 Y114.256 E27.72131
G1 X138.577 Y115.013 E27.761
G1 X138.099 Y116.203 E27.82498
G1 X137.809 Y116.819 E27.85895
G1 X137.375 Y117.497 E27.89911
G1 X136.619 Y118.516 E27.96241
G1 X136.182 Y119.038 E27.99638
G1 X135.596 Y119.58 E28.0362
G1 X134.6 Y120.381 E28.09997
G1 X134.045 Y120.776 E28.13395
G1 X133.342 Y121.151 E28.1737
G1 X132.187 Y121.67 E28.23688
G1 X131.551 Y121.913 E28.27084
G1 X130.774 Y122.099 E28.3107
G1 X130.381 Y122.165 E28.33059
G1 X130.299 Y122.437 E28.34476
G1 X130.027 Y123.061 E28.37872
G1 X129.683 Y123.649 E28.41271
G1 X129.273 Y124.193 E28.44669
G1 X128.802 Y124.684 E28.48064
G1 X128.277 Y125.118 E28.51462
